resources/haticons/SVG/help.svg

<!-- Generated by IcoMoon.io -->
<svg version="1.1" xmlns="http://www.w3.org/2000/svg" width="24" height="24" viewBox="0 0 24 24">
<title>help</title>
<path d="M12 21.9c-2.025 0-3.9-0.45-5.625-1.2-1.050 0.525-4.575 2.325-4.875 2.475s-0.525 0.225-0.825 0 0.075-0.9 0.075-0.9l2.175-4.050c-1.8-1.875-2.925-4.275-2.925-6.9 0-5.85 5.4-10.575 12-10.575s12 4.725 12 10.575-5.4 10.575-12 10.575zM11.85 19.2c0.9 0 1.65-0.75 1.65-1.65s-0.75-1.65-1.65-1.65-1.65 0.75-1.65 1.65c0 0.9 0.75 1.65 1.65 1.65zM11.55 4.2s-1.725-0.15-3.45 1.275c-0.825 1.050-0.15 2.025-0.15 2.025s0.6 1.125 1.875 0.225c1.125-0.825 1.8-0.675 1.8-0.675s1.65 0 1.65 1.275c-0.15 0.975-0.9 1.35-0.9 1.35s-1.8 0.975-1.875 3.075c0.15 2.325 1.050 2.025 1.050 2.025s0.525 0 0.825-0.975c0.3-1.575 1.875-2.4 1.875-2.4s1.95-1.050 1.95-3.075-1.65-4.125-4.65-4.125z"></path>
</svg>

<svg xmlns="http://www.w3.org/2000/svg" width="24" height="24"><path d="M12 21.9c-2.025 0-3.9-.45-5.625-1.2-1.05.525-4.575 2.325-4.875 2.475s-.525.225-.825 0 .075-.9.075-.9l2.175-4.05C1.125 16.35 0 13.95 0 11.325 0 5.475 5.4.75 12 .75s12 4.725 12 10.575S18.6 21.9 12 21.9zm-.15-2.7c.9 0 1.65-.75 1.65-1.65s-.75-1.65-1.65-1.65-1.65.75-1.65 1.65c0 .9.75 1.65 1.65 1.65zm-.3-15S9.825 4.05 8.1 5.475C7.275 6.525 7.95 7.5 7.95 7.5s.6 1.125 1.875.225c1.125-.825 1.8-.675 1.8-.675s1.65 0 1.65 1.275c-.15.975-.9 1.35-.9 1.35s-1.8.975-1.875 3.075c.15 2.325 1.05 2.025 1.05 2.025s.525 0 .825-.975c.3-1.575 1.875-2.4 1.875-2.4s1.95-1.05 1.95-3.075S14.55 4.2 11.55 4.2z"/></svg>
